x500wdbosku14.site
x500wdbosku15.site
x50espb589.shop
x5k1qrbded.top
x5y59147uif.shop
x60nl478go.bond
x65jtll941.shop
x6e4caezm.online
x6kd6tqbh2.top
x71dh866xc.bond
x71mrca595.shop
x71rfvb112.shop
x734rx3xngry.icu
x7bet-bonus.top
x7bet-com.top
x7bet-entrar.top
x7bet-jogo.top
x7bet-online.top
x7bet-slot.top
x7d8hnjfaw.top
x7meikhixcb3.xyz
x7pz.space
x8-whattsapp.net
x80xazt349.shop
x81abysmet.top
x8fqzeygvr.top
x8sellers.online
x96cg906xv.world
x9a7lm02kqaccountprotectionaccountsecuritynoreply.com
x9c55qlj9c.icu
x9n3d5k2r7h0.xyz
x9nzlcn71.xyz
x9on836121q.shop
x9tfq5ny0r4ly.xyz
xa45k-cointelegraph.com
xa5vr0s19osnx3vc9hcvtgcrecocr.hn
xamnewletterpres.online
xamnewsletterpress.online
xamnewspress.online
xamnewteampress.online
xamteamnewspressletter.online
xanteropi0.top
xanwfhx976.vip
xapplist156.xyz
xapplist161.xyz
xaqjjirgoxd.ws
xaydunganhduc.site
xbaby.store
xbbasspopfusion.site
xblonde.site
xbot-embodied.site
xbox914landing.xyz
xbox915landing.xyz
xbpiwtgsrqbfr.online
xbrujeriart.online
xbslat.ws
xbtusb10ds123nu.online
xbtusb10ds123nu.site
xc1wrs2ngr.top
xc35v453fg453fg45.top
xcdfwf2509.online
xcefwef2509.online
xcex-team.site
xcfdef2509.online
xchickfuisonapp.site
xchlleznintba.online
xchqrtix.ws
xchygame888.online
xcpsqj5h17.top
xcrcerbv.com
xcv88bxlow.icu
xcvzv-sda8-d8a-8sdafds.top
xczgjashhjqwjhka217632ghdsugiuask.xyz
xd8956565.xyz
xdcryptozoneop.store
xdcvc.org
xdfklxhr.net
xdiccukqbviiz.online
xdjapcrtv.com
xdopmddpydxpl.site
xdoskzzxf.cn
xdrtyfermazploknhgfbvc.store
xe004o6x7ju.xyz
xeasternstandardtimeexch0091serverdata.xyz
xecchecker.xyz
xecedtech.xyz
xeckeeper.xyz
xecmixing.xyz
xelmiravis.xyz
xelmoradis.xyz
xelnetworkse.online
xeltra-path.site
xembongdaz.site
xembongdaz.xyz
xemcrypto.xyz
xen-wealth.online
xenoblockchain.buzz
xenoelectronics.store
xenonxpressdelivery.xyz
xenox-vzyat.online
xentronics.online
xeqkxbzbubpdb.site
xerbanovis.xyz
xerecrazystore.online
xermodralis.xyz
xeslildmleu.biz
xettuyenvimaru.site
xewwew.click
xf-mf.com
xfast.click
xfdn160828.com
xfegjbaa07bc0fee.top
xfgmggfebwjtv.online
xfihllnrdxnvr.site
xfrh6h8fxyn.top
xftjrcml0ku2.xyz
xgaghycuwo.ws
xgame-888.com
xgdfu-wrjc0m-stbzmo.work
xgdzb4uvxpp8pbc0n65klqhng2fxa.re
xghost.xyz
xgjaheno.ws
xgmfbsitc.cn
xgozhrjmwwgxf.site
xgpkjyxgs.xyz
xgvqrwhd.biz
xgw3mgquswn7zxu32hmom1f6gmfij.sx
xhart-home.xyz
xhealth.site
xhfedcgx.ws
xhfhavppnxent.online
xhgo5anxfvq.xyz
xhiqgvx.ws
xhkbl.biz
xhlluodi057.xyz
xhmbtgimm.net
xhvmz46r3uunjssbmnlio2bkxvpqh.li
xhvqysb1056.vip
xhzamgauhb.org
xhzovq.com
xiangquan.top
xianyuyuxianyu.xyz
xianzanxian.top
xiaocaoav24.top
xiaofan123.top
xiaomi-service.online
xiaoqi009.top
xiaoqianhuyu.online
xiazhenzhen123.online
xiecgllb.net
xilft.net
xing18tvsb.xyz
xinglinnn.xyz
xingtian888.top
xingxinghai.xyz
xintengxin.xyz
xinxifuwu.xyz
xinxindiyige.online
xinzhou22.top
xinzhuo51.top
xiolev.cn
xiongqi666.xyz
xipay.ru
xiqhsgtnqcbzy.online
xiszslutzusvr.store
xite-affairs.site
xiu96ctyh6-content.xyz
xiuren008.top
xiuxiu169.com
xiuyuantech.site
xivibevibrant.online
xivledoyfnbjx.space
xiwang999.top
xiximax188.online
xj-live-qq.com
xj3v4g7ja74qr.xyz
xj4ubwcbupzj.xyz
xjbxr897cc184833.top
xjgjcema8lyd.xyz
xjnaz0eeb5a6b934.top
xjspimg39.sbs
xjzlflzxfws.com
xk233.top
xk6yn9276g7.shop
xkangkang.online
xkfkjdgkh9.xyz
xkjfbvids.xyz
xkjfbvidsj.xyz
xkjshdfjhd.xyz
xkkyqhxzxb.click
xlabproject.site
xldqrmpbpybsz.online
xlfltet.com
xlmmixing.xyz
xlqu7adack.online
xlxx18lux.store
xlxx18plus.store
xlxx69lux.store
xlxx69plus.store
xlxx69pro.store
xmasinnovation.online
xmhnd-xyaza.online
xmlformatter.site
xmljsonconverter.site
xn------6cdhbcb1e0bhhzjk0k.site
xn-----7kcjle6cejsejbck4n.online
xn----6--z5fealh0fuch5ohtxe6aej.online
xn----7sb4abftieric1hj.online
xn----7sbabaidue9afggqh8d0az.com
xn----7sbabwvkghne8a3c5a6f5bh.online
xn----7sbba0bejccs3b4a7d.online
xn----7sbbjj2ap8bl.online
xn----7sbbu7a0afdbeg.online
xn----7sbecl2dbcfoo.site
xn----7sbejcw8bbmf.online
xn----7sbfcmdvl5acicndfsr.online
xn----itbajbqqblqdoee3l.online
xn----iv8e2lm1vbwku6fknbo4i701a8xbc8dpzd.com
xn---10--83dm7ar1amid1b.online
xn--055-w48dtzh9vg8s.top
xn--05s-8l9di19u.site
xn--0et520a.xyz
xn--0r0ap2ga306l.site
xn--0trr2nnor.site
xn--0vra376c4g703c.online
xn--1-7wf9a2iwc.online
xn--1-7wf9a2iwc.site
xn--11-6qizc4j8c.online
xn--11-6qizc4j8c.site
xn--111-5kl7c2krd.online
xn--12cgax5cbg0av2dncfccx7fyaf3hxamcbb1o1hc4uva.com
xn--12clba8d1aczm1c4a6cj7bzcsh3ilcb5ozfob.com
xn--13w122bcxq.site
xn--13w92yc4y.site
xn--13wr3k251b.site
xn--13wt4qflk.site
xn--159-fml4d5f.online
xn--15qt0wsqj.com
xn--168-1klziya0dwb.online
xn--168-hkl4a3a5p2c4h.site
xn--168-ill4dyhb9o.online
xn--168-pkl3a1luf6d.online
xn--1ckuc7d0273bexk.site
xn--1ckyeq70h.site
xn--1dkl9bwb.site
xn--1lntrac-eya.online
xn--1rwv01g.top
xn--2-7wf9a2iwc.online
xn--2-vr6en1k7paz7w3lc1xpizder1a7pp.store
xn--20-zj5ey35b.com
xn--2015-93dmh2c7abaxp.online
xn--22-6qizc4j8c.online
xn--222-5kl7c2krd.site
xn--243aw9b.xyz
xn--28jxanuxj7p.site
