wwwyypp28.com
wwziohqkxzvq.sbs
wx11g56dcu.top
wx4skgcg9zglr.xyz
wxekr9t905.icu
wxl26079333.com
wxqhhskaltnbw.site
wxtldkydabpmz.online
wxwx-cassino.top
wxyzjutyofbjm.space
wy7hztaz4.com
wyaiuzyqwbuvt.site
wyapfiujccvsj.store
wyceexclucity.site
wyenagrazing.online
wylnhkn.ws
wymdgrewpljln.online
wynlsgtx.ws
wynnummanlyandregionalcommunityservices.online
wynvputh.ws
wypozyczalnia.site
wyvpurm.org
wyxogjzli.biz
wzbrlkfqscmo7gevrskkvy4dlboa4.la
wzccgjd880.vip
wzcclisq.com
wzgerf.org
wznpcku.top
wzoredj.org
wzrxaqs1184.vip
wzsngrewfjjqq.site
wzwnzmczd.shop
wzwybswsud.net
wzwz-esquilopremio.site
x-casino909.xyz
x-dbtraders.site
x-facebook-net.click
x-hamster.xyz
x-promokod.online
x-ray-inspection-machine2.click
x-ray-inspection-machine6.click
x-ray-inspection-machine7.click
x091s6e7te.icu
x097y2y7v3ch3q.live
x0x0.online
x10carparts.store
x123407196754.xyz
x12jv48qt.bond
x1b67-x6v7n-qbtxju.work
x1dhx66dvs.icu
x1oq7gd68z30.xyz
x1pkhdq8vf.top
x20kh458le.bond
x24yxug357.shop
x27pjsfcgg.top
x27wmvcave.top
x285x6czpk.top
x2bn885lg.bond
x2gc96fzw3ka.site
x2ql2fm05.xyz
x2wcmefrjk.top
x317a7506.shop
x3ct5esfvs.top
x3n20bmv7xh.shop
x402agent.online
x402agent.xyz
x402agents.xyz
x402billing.xyz
x402bridge.xyz
x402browser.xyz
x402chick.xyz
x402fella.xyz
x402gateway.xyz
x402mascot.xyz
x402money.xyz
x402nexus.xyz
x402paytalk.xyz
x402rocks.xyz
x402scrolls.xyz
x402solana.xyz
x402tokens.xyz
x402wallet.xyz
x420ponzi.site
x420village.xyz
x43nkqa861.shop
x49rq53wa.bond
x4qo3kb19g.shop
x4zq1scn983.com
x500wdbosku10.site
x500wdbosku11.site
x500wdbosku13.site
x500wdbosku14.site
x500wdbosku15.site
x50espb589.shop
x57z1xhpe2.top
x5k1qrbded.top
x5y59147uif.shop
x60nl478go.bond
x65jtll941.shop
x6e4caezm.online
x6kd6tqbh2.top
x71dh866xc.bond
x71mrca595.shop
x71rfvb112.shop
x734rx3xngry.icu
x7bet-bonus.top
x7bet-com.top
x7bet-entrar.top
x7bet-jogo.top
x7bet-online.top
x7bet-slot.top
x7d8hnjfaw.top
x7meikhixcb3.xyz
x8-whattsapp.net
x80xazt349.shop
x81abysmet.top
x89tqdb1086.shop
x8fqzeygvr.top
x8sellers.online
x96cg906xv.world
x9a7lm02kqaccountprotectionaccountsecuritynoreply.com
x9c55qlj9c.icu
x9n3d5k2r7h0.xyz
x9nzlcn71.xyz
x9on836121q.shop
x9tfq5ny0r4ly.xyz
xa45k-cointelegraph.com
xa5vr0s19osnx3vc9hcvtgcrecocr.hn
xamnewletterpres.online
xamnewsletterpress.online
xamnewspress.online
xamnewteampress.online
xamteamnewspressletter.online
xanteropi0.top
xanwfhx976.vip
xapplist156.xyz
xapplist161.xyz
xaqjjirgoxd.ws
xaydunganhduc.site
xbaby.store
xbbasspopfusion.site
xbg000333.sbs
xbg999888.sbs
xblonde.site
xbot-embodied.site
xbox914landing.xyz
xbox915landing.xyz
xbpiwtgsrqbfr.online
xbrujeriart.online
xbslat.ws
xbtusb10ds123nu.online
xbtusb10ds123nu.site
xc1wrs2ngr.top
xc35v453fg453fg45.top
xcdfwf2509.online
xcefwef2509.online
xcex-team.site
xcfdef2509.online
xchallenger.world
xchickfuisonapp.site
xchlleznintba.online
xchqrtix.ws
xchygame888.online
xcpsqj5h17.top
xcrcerbv.com
xcv88bxlow.icu
xcvzv-sda8-d8a-8sdafds.top
xczdwa431.site
xczgjashhjqwjhka217632ghdsugiuask.xyz
xd8956565.xyz
xdcryptozoneop.store
xdcvc.org
xdfklxhr.net
xdiccukqbviiz.online
xdjapcrtv.com
xdopmddpydxpl.site
xdoskzzxf.cn
xdrtyfermazploknhgfbvc.store
xe004o6x7ju.xyz
xeasternstandardtimeexch0091serverdata.xyz
xecchecker.xyz
xecedtech.xyz
xeckeeper.xyz
xecmixing.xyz
xelmiravis.xyz
xelmoradis.xyz
xelnetworkse.online
xeltra-path.site
xembongdaz.site
xembongdaz.xyz
xemcrypto.xyz
xen-wealth.online
xenoblockchain.buzz
xenoelectronics.store
xenonxpressdelivery.xyz
xenox-vzyat.online
xentronics.online
xeqkxbzbubpdb.site
xerbanovis.xyz
xerecrazystore.online
xermodralis.xyz
xeslildmleu.biz
xettuyenvimaru.site
xewwew.click
xf-mf.com
xfast.click
xfdn160828.com
xfegjbaa07bc0fee.top
xfgmggfebwjtv.online
xfihllnrdxnvr.site
xfrh6h8fxyn.top
xftjrcml0ku2.xyz
xgaghycuwo.ws
xgame-888.com
xgdfu-wrjc0m-stbzmo.work
xgdzb4uvxpp8pbc0n65klqhng2fxa.re
xghost.xyz
xgjaheno.ws
xgmfbsitc.cn
xgozhrjmwwgxf.site
xgpkjyxgs.xyz
xgvqrwhd.biz
xgw3mgquswn7zxu32hmom1f6gmfij.sx
xhart-home.xyz
xhealth.site
xhfedcgx.ws
xhfhavppnxent.online
xhgo5anxfvq.xyz
xhiqgvx.ws
xhkbl.biz
xhlluodi057.xyz
xhmbtgimm.net
xhvmz46r3uunjssbmnlio2bkxvpqh.li
xhvqysb1056.vip
xhzamgauhb.org
xhzovq.com
xianbangcc.com
xiangquan.top
xianxianxian.top
xianyuyuxianyu.xyz
xianzanxian.top
xiaocaoav24.top
xiaofan123.top
xiaomi-service.online
xiaoqi009.top
xiaoqianhuyu.online
xiazhenzhen123.online
xiecgllb.net
xilft.net
xing18tvsb.xyz
xinglinnn.xyz
xingtian888.top
xingxinghai.xyz
xintengxin.xyz
xinxifuwu.xyz
